X: 1
T: Besom In Bloom, The
M: 6/8
L: 1/8
R: jig
K: Dmix
|: FED ~F2F | GED D3 | FED FGA | GFG AGE |
FED F3 | AFA ~f2f | ded cAF  |1 AGF ~G2G :|2 AGF G2A ||
|: ~B2B BAG | ABG A2 G | FED FGA | GED ~D2D |
B2B BAG | ABG ABc | ded cAF | AGF G3 :||
